X: 8994
T: Cycling In The Rain
R: reel
M: 4/4
K: Eminor
"Em" E2 BB B4|"D" D2 AA A4|"Em" E2 BB B4|"G" BcBA "D" GAGF|
"Em" E2 BB B4|"D" D2 AA A4|"Em" BcBA GAGF|1 "Em" E2 B,2 E4:|2 "Em" E2 B,2 E2 ef|
|:"Em" gefg fedB|"D" ABAG E2 BA|"Em" Beed e2 fe|"G" dBAc "D" B2 ef|
"Em" gage dBAG|"D" EFED B,2 ED|"G" EBBA "B7" B2 AG|1 "Em" FAGF E2 ef:|2 "Em" FAGF E4||

